_theme_inc/images/logos/xash3d_fwgs.svg

<svg enable-background="new 0 0 410 150" height="150" viewBox="0 0 410 150" width="410" xmlns="http://www.w3.org/2000/svg"><path d="m218.76897 82.699636-11.36842-29.158295-16.66718 26.57646h-10.44941l23.27746-38.04036-2.61331-7.518137h-9.0637v-8.958356h15.51526l17.82087 45.861266 7.83492-2.583028 2.61096 8.88415z" fill="#f37b21" stroke-width=".296221"/><path d="m252.26617 55.721777c0 25.502184-20.42446 46.169683-45.62149 46.169683s-45.62208-20.667201-45.62208-46.169683c0-25.499212 20.42446-46.1693947 45.62208-46.1693947 25.19674 0 45.62149 20.6701827 45.62149 46.1693947z" fill="none" stroke="#f37b21" stroke-width="10.071527"/><g fill="#f37b21" transform="matrix(.6395999 0 0 .63257282 6.589978 113.34019)"><path d="m28.26.48v42.72h-7.44v-18.84h-13.2v18.84h-7.62v-42.72h7.62v16.86h13.2v-16.86z"/><path d="m116.16 41.7-13.2 3.9-8.88-23.04-13.02 21h-8.16l18.18-30.06-2.04-5.94h-7.08v-7.08h12.12l13.92 36.24 6.12-2.04z"/><path d="m170.7 36.24h21.119v6.9h-28.62v-42.6h6.9.601z"/><path d="m263.639.54h.6v7.02h-15.36v9.96h12.421v6.9h-12.421v18.78h-7.619v-42.66z"/><path d="m308.579 17.46h20.04v7.26h-20.04z"/><path d="m368.819 36.24h21.119v6.9h-28.619v-42.6h6.899.601z"/><path d="m448.378.54h6.779.66v42.72h-7.439z"/><path d="m539.757.54h.6v7.02h-15.36v9.96h12.421v6.9h-12.421v18.78h-7.619v-42.66z"/><path d="m616.257 36.3v6.9h-26.88v-42.66h25.5.6v6.96h-18.6v9.9h16.14v7.02h-16.14v11.88z"/></g></svg>

<?xml version="1.0" encoding="UTF-8" standalone="no"?>
<svg
   xmlns:dc="http://purl.org/dc/elements/1.1/"
   xmlns:cc="http://creativecommons.org/ns#"
   xmlns:rdf="http://www.w3.org/1999/02/22-rdf-syntax-ns#"
   xmlns:svg="http://www.w3.org/2000/svg"
   xmlns="http://www.w3.org/2000/svg"
   xmlns:sodipodi="http://sodipodi.sourceforge.net/DTD/sodipodi-0.dtd"
   xmlns:inkscape="http://www.inkscape.org/namespaces/inkscape"
   version="1.1"
   id="Layer_1"
   x="0px"
   y="0px"
   width="410px"
   height="150px"
   viewBox="0 0 410 150"
   enable-background="new 0 0 410 150"
   xml:space="preserve"
   sodipodi:docname="xash3d_fwgs.svg"
   inkscape:version="0.92.4 (5da689c313, 2019-01-14)"><metadata
   id="metadata8"><rdf:RDF><cc:Work
       rdf:about=""><dc:format>image/svg+xml</dc:format><dc:type
         rdf:resource="http://purl.org/dc/dcmitype/StillImage" /></cc:Work></rdf:RDF></metadata><defs
   id="defs6" /><sodipodi:namedview
   pagecolor="#ffffff"
   bordercolor="#666666"
   borderopacity="1"
   objecttolerance="10"
   gridtolerance="10"
   guidetolerance="10"
   inkscape:pageopacity="0"
   inkscape:pageshadow="2"
   inkscape:window-width="640"
   inkscape:window-height="480"
   id="namedview4"
   showgrid="false"
   inkscape:zoom="1.8243902"
   inkscape:cx="127.90034"
   inkscape:cy="92.742814"
   inkscape:current-layer="Layer_1" />  
<path
   inkscape:connector-curvature="0"
   style="fill:#f37b21;stroke-width:0.29622141"
   d="m 218.76897,82.699636 -11.36842,-29.158295 -16.66718,26.57646 h -10.44941 l 23.27746,-38.04036 -2.61331,-7.518137 h -9.0637 v -8.958356 h 15.51526 l 17.82087,45.861266 7.83492,-2.583028 2.61096,8.88415 z"
   id="path2" /><path
   inkscape:connector-curvature="0"
   style="fill:none;stroke:#f37b21;stroke-width:10.07152748"
   d="m 252.26617,55.721777 c 0,25.502184 -20.42446,46.169683 -45.62149,46.169683 -25.19703,0 -45.62208,-20.667201 -45.62208,-46.169683 0,-25.499212 20.42446,-46.1693947 45.62208,-46.1693947 25.19674,0 45.62149,20.6701827 45.62149,46.1693947 z"
   id="path4" /><g
   transform="matrix(0.6395999,0,0,0.63257282,6.5899778,113.34019)"
   id="g22"
   style="fill:#f37b21;fill-opacity:1"><path
     inkscape:connector-curvature="0"
     d="M 28.26,0.48 V 43.2 H 20.82 V 24.36 H 7.62 V 43.2 H 0 V 0.48 h 7.62 v 16.86 h 13.2 V 0.48 Z"
     id="path2-3"
     style="fill:#f37b21;fill-opacity:1" /><path
     inkscape:connector-curvature="0"
     d="m 116.16,41.7 -13.2,3.9 -8.88,-23.04 -13.02,21 H 72.9 L 91.08,13.5 89.04,7.56 H 81.96 V 0.48 h 12.12 l 13.92,36.24 6.12,-2.04 z"
     id="path4-4"
     style="fill:#f37b21;fill-opacity:1" /><path
     inkscape:connector-curvature="0"
     d="m 170.7,36.24 h 21.119 v 6.9 h -28.62 V 0.54 h 6.9 0.601 z"
     id="path6"
     style="fill:#f37b21;fill-opacity:1" /><path
     inkscape:connector-curvature="0"
     d="m 263.639,0.54 h 0.6 v 7.02 h -15.36 v 9.96 H 261.3 v 6.9 H 248.879 V 43.2 H 241.26 V 0.54 Z"
     id="path8"
     style="fill:#f37b21;fill-opacity:1" /><path
     inkscape:connector-curvature="0"
     d="m 308.579,17.46 h 20.04 v 7.26 h -20.04 z"
     id="path10"
     style="fill:#f37b21;fill-opacity:1" /><path
     inkscape:connector-curvature="0"
     d="m 368.819,36.24 h 21.119 v 6.9 H 361.319 V 0.54 h 6.899 0.601 z"
     id="path12"
     style="fill:#f37b21;fill-opacity:1" /><path
     inkscape:connector-curvature="0"
     d="m 448.378,0.54 h 6.779 0.66 v 42.72 h -7.439 z"
     id="path14"
     style="fill:#f37b21;fill-opacity:1" /><path
     inkscape:connector-curvature="0"
     d="m 539.757,0.54 h 0.6 v 7.02 h -15.36 v 9.96 h 12.421 v 6.9 H 524.997 V 43.2 h -7.619 V 0.54 Z"
     id="path16"
     style="fill:#f37b21;fill-opacity:1" /><path
     inkscape:connector-curvature="0"
     d="m 616.257,36.3 v 6.9 h -26.88 V 0.54 h 25.5 0.6 V 7.5 h -18.6 v 9.9 h 16.14 v 7.02 h -16.14 V 36.3 Z"
     id="path18"
     sodipodi:nodetypes="cccccccccccccc"
     style="fill:#f37b21;fill-opacity:1" /></g></svg>
